X:1
T: The Argyll Ludging
C:
R:Strathspey
Q:128
K:F
M:4/4
L:1/16
|:C2|FA3 A3F G3A BG3|Ac3 f3d cA3 G4|((3F2G2A2) A3F G3A BG3|c3f e3g fF3 F3C|
FA3 A3F G3A BG3|Ac3 f3d cA3 G4|((3F2G2A2) A3F G3A BG3|c3f e3g fF3 F3c|
((3f2e2d2) ((3c2d2e2) f3d cA3|f3d c3A dG3 G4|FA3 A3F G3A BG3|c3f e3g fF3 F3c|
((3f2e2d2) ((3c2d2e2) f3d cA3|f3d c3A dG3 G4|((3F2G2A2) ((3A2G2F2) G3A BG3|c3f e3g fF3 F2:|
